assets/img/braze_icons/alert-hexagon.svg

<svg fill="none" height="24" viewBox="0 0 24 24" width="24" xmlns="http://www.w3.org/2000/svg"><path clip-rule="evenodd" d="m12.4029 1.18505c-.2658-.05467-.54-.05467-.8058 0-.3073.06319-.5819.21702-.8003.33931l-.0595.03325-7.39997 4.11111-.06314.03487c-.23113.12731-.52175.28738-.74492.52956-.19295.20938-.33897.45754-.4283.7279-.10332.3127-.10211.64448-.10115.90835l.00018.07213v8.11707l-.00018.0722c-.00096.2638-.00217.5956.10115.9083.08933.2704.23535.5185.4283.7279.22316.2422.51376.4022.74489.5296l.06317.0348 7.39997 4.1112.0595.0332c.2184.1223.493.2761.8003.3393.2658.0547.54.0547.8058 0 .3073-.0632.5819-.217.8003-.3393l.0595-.0332 7.4-4.1112.0631-.0348c.2311-.1273.5218-.2874.7449-.5296.193-.2094.339-.4575.4283-.7279.1033-.3127.1021-.6445.1012-.9083l-.0002-.0722v-8.11707l.0002-.07213c.0009-.26387.0021-.59565-.1012-.90835-.0893-.27036-.2353-.51852-.4283-.7279-.2231-.24218-.5138-.40225-.7449-.52956l-.0631-.03487-7.4-4.11111-.0595-.03325c-.2184-.12229-.493-.27612-.8003-.33931zm.5971 6.81495c0-.55228-.4477-1-1-1s-1 .44772-1 1v4c0 .5523.4477 1 1 1s1-.4477 1-1zm-1 7c-.5523 0-1 .4477-1 1s.4477 1 1 1h.01c.5523 0 1-.4477 1-1s-.4477-1-1-1z" fill="#801ed7" fill-rule="evenodd"/></svg>

<svg width="24" height="24" viewBox="0 0 24 24" fill="none" xmlns="http://www.w3.org/2000/svg">
<path fill-rule="evenodd" clip-rule="evenodd" d="M12.4029 1.18505C12.1371 1.13038 11.8629 1.13038 11.5971 1.18505C11.2898 1.24824 11.0152 1.40207 10.7968 1.52436L10.7373 1.55761L3.33733 5.66872L3.27419 5.70359C3.04306 5.8309 2.75244 5.99097 2.52927 6.23315C2.33632 6.44253 2.1903 6.69069 2.10097 6.96105C1.99765 7.27375 1.99886 7.60553 1.99982 7.8694L2 7.94153V16.0586L1.99982 16.1308C1.99886 16.3946 1.99765 16.7264 2.10097 17.0391C2.1903 17.3095 2.33632 17.5576 2.52927 17.767C2.75243 18.0092 3.04303 18.1692 3.27416 18.2966L3.33733 18.3314L10.7373 22.4426L10.7968 22.4758C11.0152 22.5981 11.2898 22.7519 11.5971 22.8151C11.8629 22.8698 12.1371 22.8698 12.4029 22.8151C12.7102 22.7519 12.9848 22.5981 13.2032 22.4758L13.2627 22.4426L20.6627 18.3314L20.7258 18.2966C20.9569 18.1693 21.2476 18.0092 21.4707 17.767C21.6637 17.5576 21.8097 17.3095 21.899 17.0391C22.0023 16.7264 22.0011 16.3946 22.0002 16.1308L22 16.0586V7.94153L22.0002 7.8694C22.0011 7.60553 22.0023 7.27375 21.899 6.96105C21.8097 6.69069 21.6637 6.44253 21.4707 6.23315C21.2476 5.99097 20.9569 5.8309 20.7258 5.70359L20.6627 5.66872L13.2627 1.55761L13.2032 1.52436C12.9848 1.40207 12.7102 1.24824 12.4029 1.18505ZM13 8C13 7.44772 12.5523 7 12 7C11.4477 7 11 7.44772 11 8V12C11 12.5523 11.4477 13 12 13C12.5523 13 13 12.5523 13 12V8ZM12 15C11.4477 15 11 15.4477 11 16C11 16.5523 11.4477 17 12 17H12.01C12.5623 17 13.01 16.5523 13.01 16C13.01 15.4477 12.5623 15 12.01 15H12Z" fill="#801ED7"/>
</svg>
